X: 5
T: The Old Maids Of Galway
R: reel
M: 4/4
L: 1/8
K: Bmin
dc||BE ~E2 B2AF|EFDE FA A2|BE ~E2 B2AF|EFDE FD D2|BE ~E2 B2AF|EFDE FA A2|BAFA dBAF|EFDE FD D2:|dfed BAFA|dfed Be e2|dfed B2 AF|EFDE FD D2|dfed BAFA|dfed Be e2|fdef dBAF|EFDE FD D2:||


Tune 976	Setting 5373

